www/assets/icons/bento.svg

<svg width="24" height="24" viewBox="0 0 24 24" xmlns="http://www.w3.org/2000/svg" fill='currentColor'><path d="M16 11V5H20C21.1 5 22 5.9 22 7V11H16ZM20 19C21.1 19 22 18.1 22 17V13H16V19H20ZM14 5V19H4C2.9 19 2 18.1 2 17V7C2 5.9 2.9 5 4 5H14ZM9.5 12C9.5 11.17 8.83 10.5 8 10.5C7.17 10.5 6.5 11.17 6.5 12C6.5 12.83 7.17 13.5 8 13.5C8.83 13.5 9.5 12.83 9.5 12Z"/></svg>

<svg xmlns="http://www.w3.org/2000/svg" width="24" height="24" viewBox="0 0 24 24" fill='currentColor'><path d="M16 11V5h4c1.1 0 2 .9 2 2v4zm4 8c1.1 0 2-.9 2-2v-4h-6v6zM14 5v14H4c-1.1 0-2-.9-2-2V7c0-1.1.9-2 2-2zm-4.5 7c0-.83-.67-1.5-1.5-1.5s-1.5.67-1.5 1.5.67 1.5 1.5 1.5 1.5-.67 1.5-1.5"/></svg>
